;FLAVOR:Marlin
;TIME:5903
;Filament used: 5.11245m
;Layer height: 0.3
;MINX:63.8
;MINY:60.8
;MINZ:0.3
;MAXX:156.2
;MAXY:159.2
;MAXZ:18.6
;Generated with Cura_SteamEngine main
M140 S60
M105
M190 S60
M104 S210
M105
M109 S210
M82 ;absolute extrusion mode
G28 ;Home
G1 Z15.0 F2000 ;Move the platform
G92 E0
G92 E0
G1 F1500 E-6.5
;LAYER_COUNT:62
;LAYER:0
M107
M204 S1000
G0 F6000 X68.307 Y61.686 Z0.3
G0 X66.502 Y65.752
;TYPE:SKIRT
G1 F1500 E0
G1 F1200 X67.489 Y62.948 E0.14831
G1 X67.694 Y62.485 E0.17357
G1 X67.969 Y62.061 E0.19878
G1 X68.307 Y61.686 E0.22397
G1 X68.701 Y61.368 E0.24923
G1 X69.139 Y61.117 E0.27441
G1 X69.612 Y60.938 E0.29965
G1 X70.107 Y60.835 E0.32487
G1 X70.408 Y60.812 E0.33993
G1 X70.83 Y60.8 E0.36099
G1 X148.839 Y60.8 E4.25288
G1 X149.539 Y60.81 E4.2878
G1 X150.042 Y60.857 E4.31301
G1 X150.532 Y60.983 E4.33825
G1 X150.995 Y61.185 E4.36345
G1 X151.422 Y61.457 E4.38871
G1 X151.8 Y61.792 E4.41391
G1 X152.12 Y62.183 E4.43912
G1 X152.375 Y62.62 E4.46436
G1 X152.509 Y62.941 E4.48171
G1 X152.865 Y63.946 E4.5349
G1 X153.129 Y64.724 E4.57589
G1 X154.09 Y67.311 E4.71358
G1 X155.104 Y69.823 E4.84873
G1 X155.721 Y71.239 E4.92579
G1 X155.946 Y71.782 E4.95511
G1 X156.102 Y72.263 E4.98034
G1 X156.188 Y72.908 E5.0128
G1 X156.2 Y73.33 E5.03386
G1 X156.199 Y145.209 E8.61992
G1 X156.175 Y146.571 E8.68788
G1 X156.14 Y147.151 E8.71687
G1 X156.11 Y147.43 E8.73087
G1 X155.942 Y148.52 E8.78589
G1 X155.673 Y149.652 E8.84394
G1 X155.527 Y150.128 E8.86878
G1 X155.252 Y150.892 E8.90929
G1 X154.916 Y151.655 E8.95088
G1 X154.615 Y152.251 E8.9842
G1 X154.371 Y152.683 E9.00895
G1 X153.922 Y153.4 E9.05116
G1 X153.377 Y154.147 E9.09729
G1 X152.84 Y154.782 E9.13878
G1 X152.379 Y155.274 E9.17242
G1 X152.017 Y155.626 E9.19761
G1 X151.42 Y156.157 E9.23747
G1 X150.655 Y156.745 E9.2856
G1 X149.89 Y157.252 E9.33139
G1 X149.038 Y157.731 E9.38016
G1 X148.314 Y158.072 E9.42008
G1 X147.578 Y158.37 E9.4597
G1 X147.209 Y158.499 E9.4792
G1 X146.552 Y158.702 E9.51351
G1 X146.26 Y158.778 E9.52856
G1 X145.175 Y159.004 E9.58385
G1 X144.189 Y159.132 E9.63346
G1 X143.734 Y159.173 E9.65625
G1 X142.12 Y159.2 E9.73678
G1 X77.791 Y159.199 E12.94617
G1 X76.43 Y159.175 E13.01408
G1 X75.849 Y159.14 E13.04312
G1 X75.57 Y159.11 E13.05712
G1 X74.48 Y158.942 E13.11214
G1 X73.348 Y158.673 E13.17019
G1 X72.872 Y158.527 E13.19503
G1 X72.099 Y158.249 E13.23601
G1 X71.165 Y157.83 E13.28708
G1 X70.654 Y157.564 E13.31582
G1 X70.317 Y157.371 E13.3352
G1 X69.6 Y156.922 E13.37741
G1 X68.853 Y156.377 E13.42354
G1 X68.218 Y155.84 E13.46503
G1 X67.725 Y155.378 E13.49874
G1 X67.374 Y155.017 E13.52386
G1 X66.843 Y154.42 E13.56372
G1 X66.249 Y153.648 E13.61231
G1 X65.747 Y152.888 E13.65776
G1 X65.269 Y152.036 E13.70649
G1 X64.929 Y151.316 E13.74622
G1 X64.63 Y150.578 E13.78595
G1 X64.501 Y150.209 E13.80545
G1 X64.298 Y149.552 E13.83975
G1 X64.222 Y149.26 E13.85481
G1 X63.996 Y148.175 E13.9101
G1 X63.868 Y147.189 E13.9597
G1 X63.827 Y146.735 E13.98245
G1 X63.8 Y145.176 E14.06024
G1 X63.8 Y73.657 E17.62834
G1 X63.811 Y72.948 E17.66371
G1 X63.859 Y72.445 E17.68892
G1 X63.986 Y71.956 E17.71413
G1 X64.078 Y71.719 E17.72681
G1 X64.449 Y70.868 E17.77313
G1 X65.5 Y68.353 E17.90911
G1 X66.502 Y65.752 E18.04818
G1 F1500 E11.54818
G0 F6000 X74.676 Y146.039
;TYPE:SUPPORT
G1 F1500 E18.04818
G1 F1200 X74.676 Y151.962 E18.34367
G0 F6000 X74.329 Y152.019
G1 F1200 X73.693 Y152.019 E18.3754
G0 F6000 X72.009 Y151.29
G1 F1200 X72.009 Y146.709 E18.60395
G1 X72.038 Y146.685
G1 X75.963 Y146.685 E18.79977
G0 F6000 X77.012 Y149.352
G1 F1200 X70.982 Y149.352 E19.10061
G1 F1500 E12.60061
G0 F6000 X142.983 Y149.352
G1 F1500 E19.10061
G1 F1200 X149.013 Y149.352 E19.40145
G0 F6000 X147.964 Y146.685
G1 F1200 X144.039 Y146.685 E19.59727
G1 X144.018 Y146.701
G1 X144.018 Y151.298 E19.82661
G0 F6000 X145.694 Y152.019
G1 F1200 X146.33 Y152.019 E19.85834
G0 F6000 X146.685 Y151.959
G1 F1200 X146.685 Y146.042 E20.15354
G1 F1500 E13.65354
;MESH:mid.stl
G0 F6000 X143.368 Y151.878
G0 X143.638 Y152.351
;TYPE:WALL-INNER
G1 F1500 E20.15354
G1 F1200 X143.207 Y152 E20.18127
G1 X142.918 Y151.703 E20.20195
G1 X142.581 Y151.263 E20.2296
G1 X142.368 Y150.904 E20.25042
G1 X142.169 Y150.459 E20.27474
G1 X142.024 Y150.001 E20.29871
G1 X141.933 Y149.517 E20.32328
G1 X141.9 Y148.964 E20.35092
G1 X141.933 Y148.483 E20.37497
G1 X142.006 Y148.071 E20.39585
G1 X142.145 Y147.605 E20.42011
G1 X142.368 Y147.096 E20.44783
G1 X142.581 Y146.737 E20.46866
G1 X142.918 Y146.297 E20.49631
G1 X143.133 Y146.078 E20.51162
G1 F969.7 X143.333 Y145.77 E20.53429
G1 F827.6 X143.527 Y145.625 E20.55181
G1 F846.6 X144.02 Y145.318 E20.59289
G1 F997.9 X144.426 Y145.215 E20.61802
G1 F1200 X144.901 Y145.049 E20.64312
G1 X145.36 Y144.95 E20.66655
G1 X145.844 Y144.904 E20.6908
G1 X146.398 Y144.92 E20.71845
G1 X146.881 Y144.996 E20.74284
G1 X147.348 Y145.128 E20.76706
G1 X147.729 Y145.282 E20.78756
G1 X148.158 Y145.514 E20.81189
G1 X148.555 Y145.793 E20.8361
G1 X148.965 Y146.167 E20.86379
G1 X149.282 Y146.542 E20.88828
G1 X149.547 Y146.944 E20.91231
G1 X149.737 Y147.315 E20.9331
G1 X149.909 Y147.759 E20.95686
G1 X150.029 Y148.239 E20.98154
G1 X150.095 Y148.791 E21.00928
G1 X150.091 Y149.277 E21.03352
G1 X150.03 Y149.761 E21.05786
G1 X149.909 Y150.241 E21.08256
G1 X149.738 Y150.683 E21.1062
G1 X149.511 Y151.116 E21.13059
G1 X149.264 Y151.484 E21.1527
G1 X148.955 Y151.847 E21.17649
G1 X148.612 Y152.161 E21.19969
G1 X148.215 Y152.45 E21.22419
G1 X147.758 Y152.708 E21.25037
G1 X147.336 Y152.879 E21.27308
G1 X146.81 Y153.02 E21.30025
G1 X146.328 Y153.086 E21.32453
G1 X145.844 Y153.097 E21.34868
G1 X145.36 Y153.05 E21.37294
G1 X144.952 Y152.964 E21.39374
G1 X144.489 Y152.81 E21.41808
G1 X144.055 Y152.609 E21.44195
G1 X143.638 Y152.351 E21.46641
G0 F6000 X144.204 Y152.235
;TYPE:WALL-OUTER
G1 F1200 X143.852 Y152.013 E21.48717
G1 X143.511 Y151.737 E21.50906
G1 X143.195 Y151.413 E21.53164
G1 X142.925 Y151.059 E21.55385
G1 X142.712 Y150.7 E21.57468
G1 X142.535 Y150.299 E21.59654
G1 X142.406 Y149.883 E21.61827
G1 X142.327 Y149.447 E21.64038
G1 X142.3 Y148.988 E21.66332
G1 X142.327 Y148.553 E21.68506
G1 X142.4 Y148.141 E21.70594
G1 X142.535 Y147.701 E21.7289
G1 X142.712 Y147.3 E21.75077
G1 X142.925 Y146.941 E21.77159
G1 X143.205 Y146.576 E21.79454
G1 X143.494 Y146.279 E21.81522
G1 X143.645 Y146.154 E21.825
G1 X143.852 Y145.987 E21.83827
G1 X144.204 Y145.764 E21.85906
G1 X144.619 Y145.568 E21.88195
G1 X145.017 Y145.432 E21.90294
G1 X145.466 Y145.338 E21.92582
G1 X145.879 Y145.302 E21.94651
G1 X146.34 Y145.316 E21.96952
G1 X146.752 Y145.377 E21.9903
G1 X147.198 Y145.499 E22.01336
G1 X147.579 Y145.653 E22.03387
G1 X147.964 Y145.864 E22.05577
G1 X148.323 Y146.119 E22.07774
G1 X148.662 Y146.429 E22.10066
G1 X148.95 Y146.764 E22.1227
G1 X149.191 Y147.126 E22.14439
G1 X149.381 Y147.497 E22.16519
G1 X149.535 Y147.901 E22.18676
G1 X149.64 Y148.333 E22.20894
G1 X149.695 Y148.791 E22.23195
G1 X149.695 Y149.206 E22.25266
G1 X149.64 Y149.667 E22.27582
G1 X149.535 Y150.099 E22.298
G1 X149.382 Y150.501 E22.31946
G1 X149.179 Y150.894 E22.34153
G1 X148.944 Y151.244 E22.36256
G1 X148.66 Y151.575 E22.38432
G1 X148.342 Y151.866 E22.40583
G1 X147.983 Y152.124 E22.42788
G1 X147.589 Y152.344 E22.45039
G1 X147.194 Y152.503 E22.47164
G1 X146.752 Y152.624 E22.4945
G1 X146.316 Y152.686 E22.51647
G1 X145.879 Y152.698 E22.53828
G1 X145.466 Y152.662 E22.55896
G1 X145.011 Y152.566 E22.58216
G1 X144.619 Y152.432 E22.60283
G1 X144.204 Y152.235 E22.62575
G0 F6000 X144.035 Y152.129
G0 X143.875 Y152.381
G0 X143.016 Y151.573
G0 X141.794 Y149.776
G0 X142.494 Y146.58
G0 X143.023 Y145.957
G0 X143.475 Y145.314
G0 X142.746 Y145.535
G0 X139.726 Y147.184
G0 X139.423 Y147.208
;TYPE:WALL-INNER
G1 F1200 X139.066 Y147.179 E22.64362
G1 X134.889 Y144.764 E22.88434
G1 F1064.3 X134.651 Y144.365 E22.91047
G1 F956.2 X134.651 Y142.028 E23.05679
G1 F960 X134.65 Y139.691 E23.20254
G1 F1010.5 X134.8 Y139.331 E23.22564
G1 F1129.4 X134.989 Y139.178 E23.23853
G1 F1200 X139.05 Y136.831 E23.47254
G1 X139.377 Y136.784 E23.48902
G1 X139.601 Y136.86 E23.50082
G1 X143.601 Y139.172 E23.73132
G1 X143.776 Y139.326 E23.74295
G1 X143.854 Y139.46 E23.75068
G1 X143.9 Y139.692 E23.76248
G1 X143.9 Y144.329 E23.99382
G1 X143.859 Y144.529 E24.00401
G1 F997.9 X143.725 Y144.842 E24.02444
G1 F846.6 X143.484 Y144.989 E24.0444
G1 F833.3 X143.243 Y145.137 E24.06472
G1 F820.5 X143.001 Y145.285 E24.08542
G1 F813.6 X143 Y145.286 E24.08552
G1 F969.7 X142.607 Y145.402 E24.11082
G1 F1200 X139.601 Y147.14 E24.28405
G1 X139.423 Y147.208 E24.29356
G0 F6000 X139.36 Y146.818
;TYPE:WALL-OUTER
G1 F1200 X139.227 Y146.807 E24.30021
G1 X135.199 Y144.482 E24.53225
G1 F1203 X135.1 Y144.372 E24.53961
G1 X135.1 Y139.627 E24.77575
G1 F1200 X135.199 Y139.518 E24.78309
G1 X139.223 Y137.195 E25.0149
G1 X139.352 Y137.178 E25.0214
G1 X143.401 Y139.518 E25.25471
G1 X143.5 Y139.631 E25.2622
G1 X143.5 Y144.315 E25.49589
G1 X143.425 Y144.465 E25.50426
G1 X142.752 Y144.856 E25.54309
G1 X139.36 Y146.818 E25.73859
G0 F6000 X139.227 Y146.807
G0 X139.169 Y146.774
G1 F1500 E19.23859
G0 F6000 X138.918 Y147.21
G0 X139.3 Y147.121
G0 X143.734 Y144.559
G0 X143.734 Y139.441
G0 X143.081 Y139.08
G0 X143.554 Y138.264
G0 X143.923 Y138.216
;TYPE:WALL-INNER
G1 F1500 E25.73859
G1 F1200 X143.762 Y138.176 E25.74686
G1 X139.606 Y135.774 E25.98635
G1 F1191.1 X139.46 Y135.579 E25.99859
G1 F1106 X139.371 Y135.363 E26.01124
G1 F1039 X139.371 Y133.027 E26.14584
G1 F1043.5 X139.37 Y130.691 E26.27987
G1 X139.37 Y130.692 E26.27993
G1 F1116.3 X139.463 Y130.422 E26.29524
G1 F1200 X139.605 Y130.227 E26.30728
G1 X143.699 Y127.86 E26.54321
G1 X143.923 Y127.784 E26.55501
G1 X144.243 Y127.827 E26.57112
G1 X148.307 Y130.175 E26.80528
G1 X148.538 Y130.424 E26.82222
G1 X148.601 Y130.627 E26.83283
G1 X148.601 Y135.425 E27.0722
G1 X148.509 Y135.628 E27.08332
G1 X148.384 Y135.78 E27.09314
G1 X144.203 Y138.197 E27.33408
G1 X143.923 Y138.216 E27.34808
G0 F6000 X143.945 Y137.821
;TYPE:WALL-OUTER
G1 F1200 X139.868 Y135.464 E27.58302
G1 X139.8 Y135.326 E27.5907
G1 X139.8 Y130.692 E27.82189
G1 X139.868 Y130.536 E27.83038
G1 X143.948 Y128.178 E28.06548
G1 X144.074 Y128.193 E28.07181
G1 X148.103 Y130.519 E28.30391
G1 X148.198 Y130.621 E28.31087
G1 X148.201 Y135.348 E28.5467
G1 X148.101 Y135.482 E28.55504
G1 X144.068 Y137.813 E28.78744
G1 X143.945 Y137.821 E28.79359
G0 F6000 X143.772 Y137.721
G0 X143.523 Y138.154
G0 X139.14 Y134.983
G0 X134.689 Y138.195
G0 X134.339 Y138.218
;TYPE:WALL-INNER
G1 F1200 X134.042 Y138.176 E28.80855
G1 X129.87 Y135.765 E29.04895
G1 F1076.2 X129.636 Y135.364 E29.07478
G1 F975.6 X129.636 Y133.028 E29.21813
G1 F979.6 X129.635 Y130.692 E29.36089
G1 F1078.7 X129.737 Y130.433 E29.37634
G1 F1200 X129.878 Y130.23 E29.38867
G1 X133.979 Y127.86 E29.62498
G1 X134.162 Y127.791 E29.63474
G1 X134.339 Y127.782 E29.64358
G1 X134.532 Y127.831 E29.65351
G1 X138.676 Y130.227 E29.89233
G1 X138.817 Y130.422 E29.90433
G1 F1116.3 X138.91 Y130.692 E29.91965
G1 F1043.5 X138.91 Y133.028 E30.05368
G1 F1039 X138.909 Y135.364 E30.18828
G1 F1106 X138.82 Y135.579 E30.20088
G1 F1191.1 X138.674 Y135.774 E30.21312
G1 F1200 X134.525 Y138.174 E30.45225
G1 X134.339 Y138.218 E30.46179
G0 F6000 X134.222 Y137.819
;TYPE:WALL-OUTER
G1 F1200 X130.179 Y135.482 E30.69477
G1 X130.08 Y135.326 E30.70399
G1 X130.08 Y130.692 E30.93518
G1 X130.099 Y130.605 E30.93962
G1 X130.179 Y130.518 E30.94552
G1 X134.222 Y128.181 E31.1785
G1 X134.357 Y128.195 E31.18527
G1 X138.412 Y130.536 E31.41887
G1 X138.48 Y130.692 E31.42736
G1 X138.48 Y135.326 E31.65855
G1 X138.412 Y135.464 E31.66622
G1 X134.353 Y137.807 E31.90004
G1 X134.222 Y137.819 E31.90661
G0 F6000 X134.049 Y137.719
G0 X133.8 Y138.153
G0 X129.39 Y134.985
G0 X124.912 Y138.191
G0 X124.575 Y138.216
;TYPE:WALL-INNER
G1 F1200 X124.262 Y138.176 E31.92235
G1 X120.106 Y135.774 E32.16183
G1 F1191.1 X119.96 Y135.579 E32.17408
G1 F1106 X119.871 Y135.363 E32.18672
G1 F1039 X119.871 Y133.027 E32.32133
G1 F1043.5 X119.87 Y130.691 E32.45535
G1 X119.87 Y130.692 E32.45541
G1 F1116.3 X119.963 Y130.422 E32.47073
G1 F1200 X120.105 Y130.227 E32.48276
G1 X124.199 Y127.86 E32.71869
G1 X124.423 Y127.784 E32.73049
G1 X124.743 Y127.827 E32.7466
G1 X128.901 Y130.229 E32.98617
G1 X129.043 Y130.433 E32.99857
G1 F1078.7 X129.145 Y130.692 E33.01402
G1 F979.6 X129.145 Y133.028 E33.15679
G1 F975.6 X129.144 Y135.364 E33.30014
G1 F1076.2 X128.91 Y135.765 E33.32596
G1 F1200 X124.743 Y138.173 E33.56607
G1 X124.575 Y138.216 E33.57472
G0 F6000 X124.448 Y137.822
;TYPE:WALL-OUTER
G1 F1200 X120.368 Y135.464 E33.80983
G1 X120.3 Y135.326 E33.8175
G1 X120.3 Y130.692 E34.04869
G1 X120.368 Y130.536 E34.05718
G1 X124.448 Y128.178 E34.29228
G1 X124.574 Y128.193 E34.29861
G1 X128.603 Y130.519 E34.53071
G1 X128.7 Y130.626 E34.53792
G1 X128.7 Y135.326 E34.7724
G1 X128.601 Y135.482 E34.78162
G1 X124.574 Y137.807 E35.01361
G1 X124.448 Y137.822 E35.01994
G0 F6000 X124.275 Y137.722
G0 X124.025 Y138.156
G0 X119.64 Y134.983
G0 X115.189 Y138.195
G0 X114.839 Y138.218
;TYPE:WALL-INNER
G1 F1200 X114.542 Y138.176 E35.03491
G1 X110.37 Y135.765 E35.2753
G1 F1076.2 X110.136 Y135.364 E35.30113
G1 F975.6 X110.136 Y133.028 E35.44448
G1 F979.6 X110.135 Y130.692 E35.58725
G1 F1078.7 X110.237 Y130.433 E35.6027
G1 F1200 X110.378 Y130.23 E35.61503
G1 X114.479 Y127.86 E35.85133
G1 X114.662 Y127.791 E35.86109
G1 X114.839 Y127.782 E35.86993
G1 X115.032 Y127.831 E35.87987
G1 X119.176 Y130.227 E36.11868
G1 X119.317 Y130.422 E36.13069
G1 F1116.3 X119.41 Y130.692 E36.146
G1 F1043.5 X119.41 Y133.028 E36.28003
G1 F1039 X119.409 Y135.364 E36.41464
G1 F1106 X119.32 Y135.579 E36.42723
G1 F1191.1 X119.174 Y135.774 E36.43948
G1 F1200 X115.025 Y138.174 E36.67861
G1 X114.839 Y138.218 E36.68814
G0 F6000 X114.722 Y137.819
;TYPE:WALL-OUTER
G1 F1200 X110.679 Y135.482 E36.92112
G1 X110.58 Y135.326 E36.93034
G1 X110.58 Y130.692 E37.16153
G1 X110.599 Y130.605 E37.16598
G1 X110.679 Y130.518 E37.17187
G1 X114.722 Y128.181 E37.40485
G1 X114.857 Y128.195 E37.41162
G1 X118.912 Y130.536 E37.64522
G1 X118.98 Y130.692 E37.65371
G1 X118.98 Y135.326 E37.8849
G1 X118.912 Y135.464 E37.89258
G1 X114.853 Y137.807 E38.1264
G1 X114.722 Y137.819 E38.13296
G0 F6000 X114.549 Y137.719
G0 X114.3 Y138.153
G0 X109.89 Y134.985
G0 X105.412 Y138.191
G0 X105.075 Y138.216
;TYPE:WALL-INNER
G1 F1200 X104.762 Y138.176 E38.1487
G1 X100.606 Y135.774 E38.38819
G1 F1191.1 X100.46 Y135.579 E38.40043
G1 F1106 X100.371 Y135.363 E38.41308
G1 F1039 X100.371 Y133.027 E38.54768
G1 F1043.5 X100.37 Y130.691 E38.68171
G1 X100.37 Y130.692 E38.68177
G1 F1116.3 X100.463 Y130.422 E38.69708
G1 F1200 X100.605 Y130.227 E38.70912
G1 X104.699 Y127.86 E38.94505
G1 X104.923 Y127.784 E38.95685
G1 X105.243 Y127.827 E38.97296
G1 X109.401 Y130.229 E39.21253
G1 X109.543 Y130.433 E39.22493
G1 F1078.7 X109.645 Y130.692 E39.24038
G1 F979.6 X109.645 Y133.028 E39.38314
G1 F975.6 X109.644 Y135.364 E39.52649
G1 F1076.2 X109.41 Y135.765 E39.55232
G1 F1200 X105.243 Y138.173 E39.79243
G1 X105.075 Y138.216 E39.80108
G0 F6000 X104.948 Y137.822
;TYPE:WALL-OUTER
G1 F1200 X100.868 Y135.464 E40.03618
G1 X100.8 Y135.326 E40.04385
G1 X100.8 Y130.692 E40.27505
G1 X100.868 Y130.536 E40.28354
G1 X104.948 Y128.178 E40.51864
G1 X105.074 Y128.193 E40.52497
G1 X109.103 Y130.519 E40.75707
G1 X109.2 Y130.626 E40.76427
G1 X109.2 Y135.326 E40.99876
G1 X109.101 Y135.482 E41.00798
G1 X105.074 Y137.807 E41.23996
G1 X104.948 Y137.822 E41.24629
G0 F6000 X104.775 Y137.722
G0 X104.525 Y138.156
G0 X100.14 Y134.983
G0 X95.689 Y138.195
G0 X95.339 Y138.218
;TYPE:WALL-INNER
G1 F1200 X95.042 Y138.176 E41.26126
G1 X90.87 Y135.765 E41.50166
G1 F1076.2 X90.636 Y135.364 E41.52749
G1 F975.6 X90.636 Y133.028 E41.67083
G1 F979.6 X90.635 Y130.692 E41.8136
G1 F1078.7 X90.737 Y130.433 E41.82905
G1 F1200 X90.878 Y130.23 E41.84138
G1 X94.979 Y127.86 E42.07769
G1 X95.162 Y127.791 E42.08745
G1 X95.339 Y127.782 E42.09629
G1 X95.532 Y127.831 E42.10622
G1 X99.676 Y130.227 E42.34504
G1 X99.817 Y130.422 E42.35704
G1 F1116.3 X99.91 Y130.692 E42.37236
G1 F1043.5 X99.91 Y133.028 E42.50638
G1 F1039 X99.909 Y135.364 E42.64099
G1 F1106 X99.82 Y135.579 E42.65359
G1 F1191.1 X99.674 Y135.774 E42.66583
